X:1
T:Caligaverunt oculi mei
T:Lassus efit BMarble
T:Caligaverunt oculi mei
T:Copyright © 2015 by CPDL.  This edition can be fully distributed, duplicated, performed, and recorded. 
T:Copyright © 2015 by CPDL.  This edition can be fully distributed, duplicated, performed, and recorded. 
T:Copyright © 2015 by CPDL.  This edition can be fully distributed, duplicated, performed, and recorded. 
T:Copyright © 2015 by CPDL.  This edition can be fully distributed, duplicated, performed, and recorded. 
T:Copyright © 2015 by CPDL.  This edition can be fully distributed, duplicated, performed, and recorded. 
C:Lassus
C:efit BMarble
Z:Copyright © 2015 by CPDL.  This edition can be fully distributed, duplicated, performed, and recorded.
Z:
%%score [ 1 2 3 4 ]
L:1/8
Q:1/2=88
M:4/2
K:D
V:1 treble nm="Soprano" snm="S."
V:2 treble nm="Alto" snm="A."
V:3 treble-8 transpose=-12 nm="Tenor" snm="T."
V:4 bass nm="Bass" snm="B."
V:1
"^My eyes were veiled from my crying,for far from me was he who would console me.Look and see if there be any sorrow like my sorrow.O ye that pass by on the road, look and seeif there be any sorrow like my sorrow." E8 ^D4 E4 | %1
w: Ca- li- ga-|
 F8 G4 G4- | G4 G4 G4 A4- | A2 G2 G6 FE F4 | E4 e8 d4- | d4 c8 B4- | B2 ^A^G A4 B8 | B8 B4 d4- | %8
w: ve- runt o-|* cu- li me-||i a fle-|* tu me-|* * * * o:|qui- a e-|
 d4 c4 d4 A4 | A4 =c4 B8 | z4 E4 F4 A4 | B8 A4 d4- | d2 c2 B6 ^A^G A4 | B4 d4 B4 A4 | F12 E4 | %15
w: * lon- ga- tus|est a me,|qui con- so-|la- ba- tur|_ _ _ _ _ _|me: Vi- de- te,|o- mnes|
 G12 F4 | F16 ||S F8 ^G4 A4- | A2 ^GF G2 A2 B8 | A8 =c8- | c4 B4 A8 | z4 G8 F4- | F4 A4 G4 F4- | %23
w: po- pu-|li,|si est do-||lor si-|* mi- lis,|si- cut|_ do- lor me-|
 F4 E6 ^DC D4 | E16!fine! |] E6 F2 G2 A2 B4 | A4 B6 A2 G4 | F8 z4 G4 | B4 c4 d8- | %29
w: |us.|O _ _ _ _|vos o- * *|mnes qui|tran- si- tis|
 d4 c2 B2 d4 c2 B2 | A4 B4 A8- | A4 G6 D2 G4- | G2 FE F4 G8 | z4 B4 d8- | d4 B4 B8- | %35
w: _ _ _ _ _ _|* per vi-||* * * * am,|at- ten-|* di- te|
 (B4 A2 G2 A4) B4- | (B2 A2 G2 F2 E4) A4 | (G8 F8) | E16 |] %39
w: _ _ _ _ et|_ _ _ _ _ vi-|de- *|te.|
V:2
 B,8 B,4 B,4 | D8 D8 | E16 | E4 B,4 D8 | ^C8 B,8 | A,8 D8 | C8 D4 D4- | D4 D4 G8 | F4 F8 E4 | %9
w: Ca- li- ga-|ve- runt|o-|cu- li me-|i a|fle- tu|me- o: qui-|* a e-|lon- ga- tus|
 F4 (G6 FE D4) | E4 ^C4 D8- | D4 E4 F8 | B,4 (D6 CB, C4) | D4 B,4 D4 C4 | (D8 C8) | D4 E8 D4 | %16
w: est a _ _ _|me, qui con-|* so- la-|ba- tur _ _ _|me: Vi- de- te,|o- *|mnes po- pu-|
 C16 || ^D8 E8 | z4 E4 F4 =G4- | (G2 FE F4) G4 A4- | (A4 G8) F4 | G4 E8 D4 | C4 (D6 E2 C4) | B,16 | %24
w: li,|si est,|si est do-|* * * * lor, si-|* * mi-|lis, si- cut|do- lor _ _|me-|
 ^G,16 |] z4 (E6 F2 G2 E2 | F4) E4 D2 C2 E4- | E2 ^DC D4 E8- | E8 z4 B,4 | D4 E4 F8- | %30
w: us.|O _ _ _|_ vos o- * *|* * * * mnes|_ qui|tran- si- tis|
 F4 E2 D2 F4 E2 D2 | ^C4 E4 (B,4 A,2 G,2 | A,8) G,8- | G,8 z4 B,4 | G12 E4 | E8 D8 | %36
w: _ _ _ _ _ _|* per vi- * *|* am,|_ at-|ten- di-|te et|
 (E6 F2 G4) F4- | F2 E2 E6 ^DC D4 | E16 |] %39
w: vi- * * de-||te.|
V:3
 E8 F4 G4 | A8 B8 | =c8 c4 c4 | (B4 A2 G2 A8) | A4 A4 G4 F4 | F16- | F8 F8 | G8 E4 B4- | %8
w: Ca- li- ga-|ve- runt|o- cu- li|me- * * *|i a fle- tu|me-|* o:|qui- a e-|
 B4 A4 B4 c4 | d4 (e6 dc B4) | A8 z4 F4 | G8 A4 B4 | G8 F8 | F4 F4 G4 E4 | (B4 A2 G2 A8) | B8 B8- | %16
w: * lon- ga- tus|est a _ _ _|me, qui|con- so- la-|ba- tur|me: Vi- de- te,|o- * * *|mnes po-|
 B4 (^A2 ^G2) A8 || B12 =c4 | (B6 ^c2) d8- | d8 e8 | d8 d6 d2 | B8 B8 | (A8 B4) A4- | A4 G4 F8 | %24
w: * pu- * li,|si est|do- * lor,|_ do-|lor si- mi-|lis, si-|cut _ do-|* lor me-|
 E16 |] z16 | z16 | z16 | z16 | z16 | z16 | z16 | z16 | z16 | z16 | z16 | z16 | z16 | z16 |] %39
w: us.|||||||||||||||
V:4
 E,8 B,,4 E,4 | D,8 G,8 | =C,8 C,4 A,,4 | (E,8 D,8) | A,,8 B,,8 | F,,8 F,,8 | F,,8 B,,8 | z16 | %8
w: Ca- li- ga-|ve- runt|o- cu- li|me- *|i a|fle- tu|me- o:||
 z16 | z16 | z16 | z16 | z16 | B,,8 G,,4 A,,4 | B,,2 C,2 D,2 E,2 F,2 G,2 A,4 | G,4 E,8 B,,4 | %16
w: |||||Vi- de- te,|o- * * * * * *|mnes po- pu-|
 F,16 || B,,8 E,8- | E,8 D,8- | (D,8 =C,8) | D,8 D,6 D,2 | E,8 B,,8 | F,,8 G,,4 A,,4 | B,,16 | %24
w: li,|si est|_ do-||lor si- mi-|lis, si-|cut do- lor|me-|
 E,16 |] z16 | z16 | z16 | z16 | z16 | z16 | z16 | z16 | z16 | z16 | z16 | z16 | z16 | z16 |] %39
w: us.|||||||||||||||

